app/img/icons/good-review.svg

<svg width="16" height="16" viewBox="0 0 16 16" fill="none" xmlns="http://www.w3.org/2000/svg">
<path fill-rule="evenodd" clip-rule="evenodd" d="M2.34315 13.6569C5.46734 16.7811 10.5327 16.7811 13.6569 13.6569C16.781 10.5327 16.781 5.46734 13.6569 2.34315C10.5327 -0.781049 5.46734 -0.781049 2.34315 2.34315C-0.781049 5.46734 -0.781049 10.5327 2.34315 13.6569ZM7.02352 11.9134L13.3586 5.57828L12.4376 4.65732L7.05363 10.1098L3.55833 6.61454L2.63737 7.5355L6.14178 11.0333L6.13849 11.0366L7.02352 11.9134Z" fill="#6EE681"/>
</svg>

<svg width="16" height="16" fill="none" xmlns="http://www.w3.org/2000/svg"><path fill-rule="evenodd" clip-rule="evenodd" d="M2.343 13.657A8 8 0 1013.657 2.343 8 8 0 002.343 13.657zm4.68-1.744l6.336-6.335-.921-.92-5.384 5.452-3.496-3.495-.92.92 3.504 3.498-.004.004.886.876z" fill="#6EE681"/></svg>
